Origami/64x64/apps/vectr.svg

<svg width="64" height="64" version="1.1" viewBox="0 0 64 64" xmlns="http://www.w3.org/2000/svg">
 <path d="M 4.043,31.828 A 28,28 0 0 0 4,33 28,28 0 0 0 32,61 28,28 0 0 0 60,33 28,28 0 0 0 59.958,32.172 28,28 0 0 1 32,59 28,28 0 0 1 4.044,31.828 Z" style="opacity:.2"/>
 <path d="M 32,4 A 28,28 0 0 0 4,32 28,28 0 0 0 32,60 28,28 0 0 0 60,32 28,28 0 0 0 32,4 Z" style="fill:#4f4f4f"/>
 <path d="M 31.998047 4 A 28 28 0 0 0 4 32 A 28 28 0 0 0 4.0214844 32.40625 A 28 28 0 0 1 31.998047 5 L 32 5 A 28 28 0 0 1 59.976562 32.585938 A 28 28 0 0 0 59.998047 32 A 28 28 0 0 0 32 4 L 31.998047 4 z" style="fill:#ffffff;opacity:.1"/>
 <path d="m22.445312 18.985295c-0.449836-7.51e-4 -0.924472 0.01562-1.433594 0.01562-2.570779-0.05377-5.143769 0.03276-7.714843 0-1.782383-0.01408-1.371347 2.170666-0.855469 3.089844 5.703791 10.162776 12.443974 21.545792 18.726562 32.273438 1.20714 1.7809 2.479822-0.637414 3.15625-1.671876 1.709564-2.614404 3.117674-5.353876 4.5625-8.09375 0.61025-1.841472-1.0958-3.258888-1.703124-4.820312-3.70588-6.581346-7.602364-13.03914-11.386718-19.5625-0.905638-1.086246-2.002056-1.228213-3.351564-1.230464zm18.63672 0.01562c-1.91791 0-0.69922 2.160156-0.69922 2.160156s2.87487 5.450474 4.53125 8.433594c1.656382 2.983128 2.550008 0.41578 2.964844-0.410156 1.492534-2.971682 2.789798-6.067674 3.835938-8.125 1.046136-2.057326-1.132812-2.058594-1.132812-2.058594z" style="opacity:.2"/>
 <path d="m22.445312 17.984375c-0.449836-7.51e-4 -0.924472 0.015625-1.433594 0.015625-2.570779-0.05377-5.143769 0.03276-7.714843 0-1.782383-0.01408-1.371347 2.170666-0.855469 3.089844 5.703791 10.162776 12.443974 21.545792 18.726562 32.273438 1.20714 1.7809 2.479822-0.637414 3.15625-1.671876 1.709564-2.614404 3.117674-5.353876 4.5625-8.09375 0.61025-1.841472-1.0958-3.258888-1.703124-4.820312-3.70588-6.581346-7.602364-13.03914-11.386718-19.5625-0.905638-1.086251-2.002056-1.228217-3.351564-1.230469zm18.63672 0.015625c-1.91791 0-0.69922 2.160156-0.69922 2.160156s2.87487 5.450474 4.53125 8.433594c1.656382 2.983128 2.550008 0.41578 2.964844-0.410156 1.492534-2.971682 2.789798-6.067674 3.835938-8.125 1.046136-2.057327-1.132812-2.058594-1.132812-2.058594z" style="fill:#cccccc"/>
 <path d="m22.445312 17.984375c-0.449836-7.51e-4 -0.924471 0.015625-1.433593 0.015625-2.570779-0.05377-5.14377 0.03276-7.714844 0-1.221195-0.009647-1.402691 1.010684-1.236328 1.951172 0.117725-0.539612 0.462193-0.957287 1.236328-0.951172 2.571074 0.03276 5.144065-0.05377 7.714844 0 0.509122 0 0.983757-0.016376 1.433593-0.015625 1.349508 0.002252 2.445925 0.144218 3.351563 1.230469 3.784354 6.52336 7.680839 12.981154 11.386719 19.5625 0.451107 1.159793 1.503591 2.242877 1.767578 3.476562 0.307045-1.67515-1.199084-3.01497-1.767578-4.476562-3.70588-6.581346-7.602365-13.03914-11.386719-19.5625-0.905638-1.086251-2.002055-1.228217-3.351563-1.230469zm18.636719 0.015625c-1.205549 0-1.171846 0.852312-0.980469 1.486328 0.125922-0.277347 0.398152-0.486328 0.980469-0.486328h9.5s0.957927 0.0159 1.291016 0.630859c0.527293-1.609286-1.291016-1.630859-1.291016-1.630859h-9.5z" style="fill:#ffffff;opacity:.2"/>
</svg>

<svg xmlns="http://www.w3.org/2000/svg" width="64" height="64" version="1.1" viewBox="0 0 64 64">
 <path style="opacity:0.2" d="M 4.043,31.828 A 28,28 0 0 0 4,33 28,28 0 0 0 32,61 28,28 0 0 0 60,33 28,28 0 0 0 59.958,32.172 28,28 0 0 1 32,59 28,28 0 0 1 4.044,31.828 Z"/>
 <path style="fill:#4f4f4f" d="M 32,4 A 28,28 0 0 0 4,32 28,28 0 0 0 32,60 28,28 0 0 0 60,32 28,28 0 0 0 32,4 Z"/>
 <path style="opacity:0.1;fill:#ffffff" d="M 31.998047 4 A 28 28 0 0 0 4 32 A 28 28 0 0 0 4.0214844 32.40625 A 28 28 0 0 1 31.998047 5 L 32 5 A 28 28 0 0 1 59.976562 32.585938 A 28 28 0 0 0 59.998047 32 A 28 28 0 0 0 32 4 L 31.998047 4 z"/>
 <path style="opacity:0.2" d="m 22.445312,18.985295 c -0.449836,-7.51e-4 -0.924472,0.01562 -1.433594,0.01562 -2.570779,-0.05377 -5.143769,0.03276 -7.714843,0 -1.782383,-0.01408 -1.371347,2.170666 -0.855469,3.089844 5.703791,10.162776 12.443974,21.545792 18.726562,32.273438 1.20714,1.7809 2.479822,-0.637414 3.15625,-1.671876 1.709564,-2.614404 3.117674,-5.353876 4.5625,-8.09375 0.61025,-1.841472 -1.0958,-3.258888 -1.703124,-4.820312 -3.70588,-6.581346 -7.602364,-13.03914 -11.386718,-19.5625 -0.905638,-1.086246 -2.002056,-1.228213 -3.351564,-1.230464 z m 18.63672,0.01562 c -1.91791,0 -0.69922,2.160156 -0.69922,2.160156 0,0 2.87487,5.450474 4.53125,8.433594 1.656382,2.983128 2.550008,0.41578 2.964844,-0.410156 1.492534,-2.971682 2.789798,-6.067674 3.835938,-8.125 1.046136,-2.057326 -1.132812,-2.058594 -1.132812,-2.058594 z"/>
 <path style="fill:#cccccc" d="M 22.445312,17.984375 C 21.995476,17.983624 21.52084,18 21.011718,18 c -2.570779,-0.05377 -5.143769,0.03276 -7.714843,0 -1.782383,-0.01408 -1.371347,2.170666 -0.855469,3.089844 5.703791,10.162776 12.443974,21.545792 18.726562,32.273438 1.20714,1.7809 2.479822,-0.637414 3.15625,-1.671876 1.709564,-2.614404 3.117674,-5.353876 4.5625,-8.09375 0.61025,-1.841472 -1.0958,-3.258888 -1.703124,-4.820312 -3.70588,-6.581346 -7.602364,-13.03914 -11.386718,-19.5625 -0.905638,-1.086251 -2.002056,-1.228217 -3.351564,-1.230469 z M 41.082032,18 c -1.91791,0 -0.69922,2.160156 -0.69922,2.160156 0,0 2.87487,5.450474 4.53125,8.433594 1.656382,2.983128 2.550008,0.41578 2.964844,-0.410156 1.492534,-2.971682 2.789798,-6.067674 3.835938,-8.125 C 52.76098,18.001267 50.582032,18 50.582032,18 Z"/>
 <path style="fill:#ffffff;opacity:0.2" d="M 22.445312 17.984375 C 21.995476 17.983624 21.520841 18 21.011719 18 C 18.44094 17.94623 15.867949 18.03276 13.296875 18 C 12.07568 17.990353 11.894184 19.010684 12.060547 19.951172 C 12.178272 19.41156 12.52274 18.993885 13.296875 19 C 15.867949 19.03276 18.44094 18.94623 21.011719 19 C 21.520841 19 21.995476 18.983624 22.445312 18.984375 C 23.79482 18.986627 24.891237 19.128593 25.796875 20.214844 C 29.581229 26.738204 33.477714 33.195998 37.183594 39.777344 C 37.634701 40.937137 38.687185 42.020221 38.951172 43.253906 C 39.258217 41.578756 37.752088 40.238936 37.183594 38.777344 C 33.477714 32.195998 29.581229 25.738204 25.796875 19.214844 C 24.891237 18.128593 23.79482 17.986627 22.445312 17.984375 z M 41.082031 18 C 39.876482 18 39.910185 18.852312 40.101562 19.486328 C 40.227484 19.208981 40.499714 19 41.082031 19 L 50.582031 19 C 50.582031 19 51.539958 19.0159 51.873047 19.630859 C 52.40034 18.021573 50.582031 18 50.582031 18 L 41.082031 18 z"/>
</svg>
